src/assets/svg/ic_cs_web.svg

<svg xmlns="http://www.w3.org/2000/svg" width="16" height="16">
    <path d="M14.704 5.542c.004.016.004.032.007.048l.001.001-.008-.049zm.007.048C13.722 2.699 11.258.75 8.219.75 4.979.75 2.39 2.967 1.55 6.179c-.043-.004-.084-.01-.133-.01a1.36 1.36 0 00-1.361 1.36V8.89c0 .704.537 1.276 1.223 1.347l.003.007 1.315 3.284a.68.68 0 001.264-.505l-1.33-3.32a.07.07 0 00.005-.013h-.008.007c.133-.346.119-.807.1-1.048a6.358 6.358 0 01-.01-.436C2.743 4.712 5.108 2.11 8.22 2.11c2.375 0 4.311 1.519 5.149 3.789l.042.109v-.002a.688.688 0 001.3-.416z"/>
    <path d="M8.174 7.043c.158-.017.233.214.436.132-.155-.063-.261-.202-.436-.132zm.531.343c.015.004.03.006.045.006.046 0 .087-.016.126-.031l.131-.046-.06-.079c-.065-.087-.145-.09-.203-.092l-.026-.002c-.039 0-.106.015-.125.116a.104.104 0 00.017.085c.027.036.069.041.095.043z"/>
    <path d="M12.551 7.578a.296.296 0 00-.25-.145.297.297 0 00-.262.161 4.063 4.063 0 01-1.694 3.419 1.936 1.936 0 00-.303.196 3.984 3.984 0 01-.643.302c.119-.089.129-.202.083-.254a.236.236 0 00.023-.21.099.099 0 00.066-.033c.021-.024.028-.058.023-.1v-.003a.197.197 0 00.034-.004c.094-.02.153-.06.177-.121a.171.171 0 00-.002-.122c.057.008.134-.007.161-.141a.758.758 0 00.193-.396.222.222 0 00.001-.077c-.001-.01-.002-.026.009-.036.027-.011.053-.029.079-.045a.234.234 0 01.068-.037.3.3 0 00.03.001c.139 0 .181-.107.204-.165a.864.864 0 00.066-.255c.013-.169.023-.314.137-.427a.313.313 0 00.046-.053c.042-.066.056-.129.041-.189-.016-.063-.065-.118-.145-.161l-.077-.045c-.092-.056-.187-.114-.309-.114-.02 0-.04.001-.055.004-.057-.094-.146-.119-.235-.086a.11.11 0 00-.008-.015.12.12 0 00-.067-.047.332.332 0 00-.035-.21.27.27 0 00-.219-.14c-.14-.007-.222-.072-.325-.19-.086-.07-.189-.083-.28-.097-.087-.013-.162-.019-.219-.071l-.026-.013h-.027c-.015 0-.028-.003-.038.001l-.023-.006c-.131.007-.292.016-.381.18-.013-.002-.019.003-.029.004l-.126-.041a.195.195 0 00-.066-.055.27.27 0 01.013-.096l.012-.049c.016-.083.003-.153-.039-.206a.23.23 0 00-.16-.081.216.216 0 00.02-.051c.081-.141-.01-.229-.04-.251-.065-.052-.155-.046-.225-.023-.105.024-.142.108-.162.152-.005.008-.017.027-.07.032a.275.275 0 01-.029-.057c-.02-.045-.009-.086.023-.177l.019-.054c.016-.051.094-.175.229-.131.11.036.196-.01.245-.062a.47.47 0 01.096.027.213.213 0 00.024.119c.033.143.128.165.182.165l.033-.002c.043-.007.183-.047.16-.281l-.006-.042c-.009-.059-.012-.092-.004-.115a.636.636 0 01.098-.061.923.923 0 00.127-.078.466.466 0 00.103-.105.415.415 0 00.06-.15 2.21 2.21 0 01.332-.229c.061-.039.123-.077.183-.117.07-.047.148-.057.246-.033l.139-.123-.02-.129a.586.586 0 00-.045-.03.279.279 0 00.005-.019h.029a.842.842 0 00.41-.12.22.22 0 00.125-.215.187.187 0 00-.16-.171l-.003-.015a.369.369 0 01-.009-.058c-.008-.053-.017-.12-.055-.187l-.073-.109-.145.067a.267.267 0 00-.111-.105.382.382 0 00-.197-.054.376.376 0 00-.38.363l.142.004-.163.023c-.03.017-.077.041-.121.079-.048-.06-.122-.079-.149-.086-.008-.001-.026-.013-.042-.023-.024-.014-.054-.033-.09-.047a.2.2 0 00.069-.144l.06-.007v-.053a.491.491 0 00.122-.011l.002.004c.016-.001.033-.002.051-.006v.002c.012 0 .034 0 .058-.01l.003-.002.011-.002.043-.012.031-.046h-.001l.008-.014c.094.005.212.003.288-.074.037-.021.107-.064.119-.149a.17.17 0 00-.049-.143l-.067-.057h-.06a.186.186 0 00-.13.06.165.165 0 00-.165-.138l-.045.005a.238.238 0 00-.191.19s-.009.004-.037.004l-.036-.002c-.033-.002-.066-.01-.1-.017-.109-.023-.249-.035-.352.02-.053.029-.136.005-.157-.008a.826.826 0 00-.451-.124c-.093 0-.183.013-.258.024a.99.99 0 01-.398-.018 1.896 1.896 0 00-1.061.053c-.084.028-.135.07-.15.134l-.047-.004a.25.25 0 00-.229.134l-.041.083.021.025c-.125.029-.167.128-.186.174a.201.201 0 01-.012.025.188.188 0 00-.048.108l-.104.038-.12.088.113.275.137-.067c.012-.005.024-.011.039-.015l.039-.014a.557.557 0 00.222-.113.595.595 0 00.04-.011c.028-.006.057-.014.083-.022.023-.008.045-.018.072-.03a.711.711 0 00.04-.023c.071-.047.167-.052.27-.058l.129-.006c.088.001.099.026.108.048l.055.078.071.005.005.005.093-.008v.054l-.1-.018-.008.04a.417.417 0 00.006.263l-.037.076c-.021.044-.057.088-.094.135a1.104 1.104 0 00-.12.171l-.029.061a.222.222 0 00-.085.171l-.001.065c-.005.12-.012.3.152.43a.277.277 0 00.028.186c.004.122.065.213.115.29.012.019.025.037.036.057l.188.312.052-.245c.01.012.02.02.022.021-.063.205.089.303.158.347.083.055.153.09.224.111.046.014.094.027.141.039.13.035.253.067.359.14l.063.039a.267.267 0 01.057.037c.056.153.18.217.261.258l.021.008a.171.171 0 00.167.028l.076-.041c.036.1.014.185-.07.259-.101.089-.1.198-.099.286 0 .054 0 .101-.019.138-.032.063.03.137.057.158.031.025.048.062.068.105.012.026.023.051.038.074.021.034.039.068.058.104.07.134.15.287.335.361a.262.262 0 01.166.255l-.001.12c-.001.062-.002.123.001.185l.021.314c.012.151.022.301.029.452.003.079.037.132.067.18a.313.313 0 01.022.036l.021.037c.05.081.059.109.021.152l-.042.049.045.047c.036.037.061.088.087.141a.95.95 0 00.064.11 4.035 4.035 0 01-3.362-.5c-.063-.041-.123-.086-.184-.131a.382.382 0 00-.451.554c.061.058.126.111.19.165a4.423 4.423 0 004.243.833 4.434 4.434 0 003.018-4.726c-.008-.074-.024-.147-.036-.22z"/>
</svg>

<?xml version="1.0" encoding="utf-8"?>
<!-- Generator: Adobe Illustrator 16.0.4, SVG Export Plug-In . SVG Version: 6.00 Build 0)  -->
<!DOCTYPE svg PUBLIC "-//W3C//DTD SVG 1.1//EN" "http://www.w3.org/Graphics/SVG/1.1/DTD/svg11.dtd">
<svg version="1.1" id="artwork" xmlns="http://www.w3.org/2000/svg" xmlns:xlink="http://www.w3.org/1999/xlink" x="0px" y="0px"
	 width="16px" height="16px" viewBox="0 0 16 16" enable-background="new 0 0 16 16" xml:space="preserve">
<g>
	<path d="M14.704,5.542L14.704,5.542c0.004,0.016,0.004,0.032,0.007,0.048l0.001,0.001L14.704,5.542z"/>
	<path d="M14.711,5.59c-0.989-2.891-3.453-4.84-6.492-4.84c-3.24,0-5.829,2.217-6.669,5.429
		c-0.043-0.004-0.084-0.01-0.133-0.01c-0.752,0-1.361,0.609-1.361,1.36V8.89c0,0.704,0.537,1.276,1.223,1.347l0.003,0.007
		l1.315,3.284c0.07,0.173,0.204,0.303,0.364,0.373c0.161,0.068,0.346,0.075,0.521,0.005c0.349-0.139,0.52-0.535,0.379-0.883
		l-1.33-3.32c0.002-0.004,0.004-0.009,0.005-0.013l-0.008,0h0.007c0.133-0.346,0.119-0.807,0.1-1.048
		c-0.007-0.092-0.013-0.345-0.01-0.436C2.743,4.712,5.108,2.11,8.22,2.11c2.375,0,4.311,1.519,5.149,3.789l0.042,0.109
		c0,0,0-0.001,0-0.002c0.138,0.301,0.474,0.469,0.804,0.38C14.567,6.293,14.779,5.943,14.711,5.59z"/>
	<path d="M8.174,7.043C8.332,7.026,8.407,7.257,8.61,7.175C8.455,7.112,8.349,6.973,8.174,7.043z"/>
	<path d="M8.705,7.386C8.72,7.39,8.735,7.392,8.75,7.392c0.046,0,0.087-0.016,0.126-0.031l0.131-0.046l-0.06-0.079
		C8.882,7.149,8.802,7.146,8.744,7.144L8.718,7.142c-0.039,0-0.106,0.015-0.125,0.116C8.585,7.299,8.598,7.327,8.61,7.343
		C8.637,7.379,8.679,7.384,8.705,7.386z"/>
	<path d="M12.551,7.578c-0.053-0.085-0.143-0.145-0.25-0.145c-0.115,0-0.211,0.066-0.262,0.161
		c0.003,0.092,0.002,0.184-0.001,0.275c-0.048,1.247-0.672,2.415-1.693,3.144c-0.003-0.013-0.312,0.19-0.303,0.196
		c-0.201,0.119-0.417,0.218-0.643,0.302c0.119-0.089,0.129-0.202,0.083-0.254c0.047-0.074,0.044-0.147,0.023-0.21
		c0.033-0.003,0.053-0.019,0.066-0.033c0.021-0.024,0.028-0.058,0.023-0.1c0-0.001,0-0.002,0-0.003c0.011,0,0.023-0.002,0.034-0.004
		c0.094-0.02,0.153-0.06,0.177-0.121c0.014-0.037,0.014-0.078-0.002-0.122c0.057,0.008,0.134-0.007,0.161-0.141
		c0.095-0.096,0.157-0.223,0.193-0.396c0.006-0.029,0.004-0.057,0.001-0.077c-0.001-0.01-0.002-0.026,0.009-0.036
		c0.027-0.011,0.053-0.029,0.079-0.045c0.022-0.015,0.056-0.037,0.068-0.037c0.01,0.001,0.02,0.001,0.03,0.001
		c0.139,0,0.181-0.107,0.204-0.165c0.028-0.072,0.059-0.157,0.066-0.255c0.013-0.169,0.023-0.314,0.137-0.427
		c0.015-0.014,0.031-0.031,0.046-0.053c0.042-0.066,0.056-0.129,0.041-0.189c-0.016-0.063-0.065-0.118-0.145-0.161
		c-0.026-0.015-0.052-0.03-0.077-0.045c-0.092-0.056-0.187-0.114-0.309-0.114c-0.02,0-0.04,0.001-0.055,0.004
		c-0.057-0.094-0.146-0.119-0.235-0.086c-0.002-0.005-0.005-0.01-0.008-0.015c-0.018-0.026-0.043-0.04-0.067-0.047
		c0.012-0.068,0-0.144-0.035-0.21C9.857,8.086,9.778,8.034,9.688,8.03c-0.14-0.007-0.222-0.072-0.325-0.19
		c-0.086-0.07-0.189-0.083-0.28-0.097C8.996,7.73,8.921,7.724,8.864,7.672L8.838,7.659H8.811c-0.015,0-0.028-0.003-0.038,0.001
		L8.75,7.654C8.619,7.661,8.458,7.67,8.369,7.834C8.356,7.832,8.35,7.837,8.34,7.838L8.214,7.797
		c-0.015-0.02-0.036-0.039-0.066-0.055c-0.003-0.016,0-0.04,0.013-0.096l0.012-0.049c0.016-0.083,0.003-0.153-0.039-0.206
		C8.088,7.333,8.022,7.315,7.974,7.31c0.008-0.016,0.017-0.035,0.02-0.051c0.081-0.141-0.01-0.229-0.04-0.251
		C7.889,6.956,7.799,6.962,7.729,6.985C7.624,7.009,7.587,7.093,7.567,7.137C7.562,7.145,7.55,7.164,7.497,7.169
		C7.489,7.161,7.474,7.127,7.468,7.112c-0.02-0.045-0.009-0.086,0.023-0.177L7.51,6.881C7.526,6.83,7.604,6.706,7.739,6.75
		c0.11,0.036,0.196-0.01,0.245-0.062C8.013,6.692,8.045,6.702,8.08,6.715C8.078,6.75,8.081,6.794,8.104,6.834
		c0.033,0.143,0.128,0.165,0.182,0.165l0.033-0.002c0.043-0.007,0.183-0.047,0.16-0.281L8.473,6.674
		C8.464,6.615,8.461,6.582,8.469,6.559C8.496,6.537,8.53,6.518,8.567,6.498c0.031-0.016,0.061-0.033,0.088-0.051
		c0.014-0.009,0.027-0.018,0.039-0.027c0.041-0.03,0.075-0.066,0.103-0.105c0.029-0.044,0.049-0.094,0.06-0.15
		c0.098-0.087,0.211-0.156,0.332-0.229C9.25,5.897,9.312,5.859,9.372,5.819C9.442,5.772,9.52,5.762,9.618,5.786l0.139-0.123
		l-0.02-0.129c-0.015-0.011-0.03-0.021-0.045-0.03C9.694,5.497,9.696,5.49,9.697,5.485h0.029c0.168,0,0.307-0.063,0.41-0.12
		c0.086-0.046,0.133-0.127,0.125-0.215c-0.007-0.089-0.076-0.16-0.16-0.171c-0.001-0.005-0.002-0.01-0.003-0.015
		c-0.005-0.019-0.007-0.038-0.009-0.058c-0.008-0.053-0.017-0.12-0.055-0.187L9.961,4.61L9.816,4.677
		C9.788,4.62,9.731,4.587,9.705,4.572c-0.06-0.036-0.128-0.054-0.197-0.054c-0.207,0-0.374,0.16-0.38,0.363L9.27,4.885L9.107,4.908
		c-0.03,0.017-0.077,0.041-0.121,0.079C8.938,4.927,8.864,4.908,8.837,4.901C8.829,4.9,8.811,4.888,8.795,4.878
		c-0.024-0.014-0.054-0.033-0.09-0.047c0.036-0.032,0.065-0.077,0.069-0.144l0.06-0.007V4.627c0.053-0.001,0.092-0.002,0.122-0.011
		L8.958,4.62c0.016-0.001,0.033-0.002,0.051-0.006v0.002c0.012,0,0.034,0,0.058-0.01L9.07,4.604c0.003,0,0.007-0.001,0.011-0.002
		l0.043-0.012l0.031-0.046L9.154,4.544C9.157,4.539,9.159,4.535,9.162,4.53c0.094,0.005,0.212,0.003,0.288-0.074
		c0.037-0.021,0.107-0.064,0.119-0.149c0.007-0.052-0.01-0.102-0.049-0.143L9.453,4.107H9.393c-0.062,0-0.102,0.034-0.13,0.06
		C9.234,4.035,9.121,4.029,9.098,4.029L9.053,4.034C8.928,4.062,8.88,4.147,8.862,4.224c0,0-0.009,0.004-0.037,0.004L8.789,4.226
		c-0.033-0.002-0.066-0.01-0.1-0.017C8.58,4.186,8.44,4.174,8.337,4.229C8.284,4.258,8.201,4.234,8.18,4.221
		C8.047,4.138,7.9,4.097,7.729,4.097c-0.093,0-0.183,0.013-0.258,0.024C7.334,4.142,7.208,4.136,7.073,4.103
		C6.735,4.019,6.378,4.036,6.012,4.156c-0.084,0.028-0.135,0.07-0.15,0.134L5.815,4.286c-0.102,0-0.187,0.051-0.229,0.134
		L5.545,4.503l0.021,0.025C5.441,4.557,5.399,4.656,5.38,4.702c-0.004,0.01-0.01,0.022-0.012,0.025
		C5.335,4.766,5.322,4.804,5.32,4.835C5.285,4.848,5.25,4.86,5.216,4.873l-0.12,0.088l0.113,0.275l0.137-0.067
		C5.358,5.164,5.37,5.158,5.385,5.154l0.039-0.014c0.067-0.021,0.149-0.047,0.222-0.113c0.013-0.003,0.027-0.007,0.04-0.011
		c0.028-0.006,0.057-0.014,0.083-0.022c0.023-0.008,0.045-0.018,0.072-0.03c0.015-0.008,0.027-0.015,0.04-0.023
		c0.071-0.047,0.167-0.052,0.27-0.058l0.129-0.006c0.088,0.001,0.099,0.026,0.108,0.048l0.055,0.078l0.071,0.005l0.005,0.005
		l0.093-0.008v0.054l-0.1-0.018l-0.008,0.04C6.489,5.147,6.468,5.247,6.51,5.344L6.473,5.42C6.452,5.464,6.416,5.508,6.379,5.555
		c-0.042,0.052-0.085,0.106-0.12,0.171C6.248,5.747,6.239,5.768,6.23,5.787C6.194,5.818,6.145,5.872,6.145,5.958L6.144,6.023
		c-0.005,0.12-0.012,0.3,0.152,0.43C6.283,6.516,6.293,6.578,6.324,6.639c0.004,0.122,0.065,0.213,0.115,0.29
		c0.012,0.019,0.025,0.037,0.036,0.057l0.188,0.312l0.052-0.245c0.01,0.012,0.02,0.02,0.022,0.021
		C6.674,7.279,6.826,7.377,6.895,7.421c0.083,0.055,0.153,0.09,0.224,0.111C7.165,7.546,7.213,7.559,7.26,7.571
		c0.13,0.035,0.253,0.067,0.359,0.14C7.64,7.725,7.66,7.737,7.682,7.75c0.021,0.011,0.051,0.029,0.057,0.037
		C7.795,7.94,7.919,8.004,8,8.045l0.021,0.008c0.04,0.032,0.08,0.039,0.109,0.039c0.016,0,0.032-0.002,0.058-0.011L8.264,8.04
		c0.036,0.1,0.014,0.185-0.07,0.259c-0.101,0.089-0.1,0.198-0.099,0.286c0,0.054,0,0.101-0.019,0.138
		C8.044,8.786,8.106,8.86,8.133,8.881c0.031,0.025,0.048,0.062,0.068,0.105c0.012,0.026,0.023,0.051,0.038,0.074
		c0.021,0.034,0.039,0.068,0.058,0.104c0.07,0.134,0.15,0.287,0.335,0.361C8.737,9.568,8.797,9.659,8.798,9.78
		c0,0.04,0,0.081-0.001,0.12c-0.001,0.062-0.002,0.123,0.001,0.185c0.006,0.104,0.014,0.209,0.021,0.314
		c0.012,0.151,0.022,0.301,0.029,0.452c0.003,0.079,0.037,0.132,0.067,0.18c0.008,0.011,0.015,0.023,0.022,0.036l0.021,0.037
		c0.05,0.081,0.059,0.109,0.021,0.152l-0.042,0.049l0.045,0.047c0.036,0.037,0.061,0.088,0.087,0.141
		c0.018,0.037,0.04,0.074,0.064,0.11c-1.181,0.348-2.401,0.131-3.362-0.5c-0.063-0.041-0.123-0.086-0.184-0.131
		c-0.038-0.013-0.078-0.021-0.121-0.021c-0.212,0-0.383,0.171-0.383,0.383c0,0.07,0.02,0.136,0.053,0.192
		c0.061,0.058,0.126,0.111,0.19,0.165c1.136,0.961,2.727,1.331,4.243,0.833c2.037-0.67,3.26-2.675,3.018-4.726
		C12.579,7.724,12.563,7.651,12.551,7.578z"/>
</g>
</svg>
